;FLAVOR:Marlin
;TIME:632
;Filament used: 0.316748m
;Layer height: 0.16
;MINX:91.024
;MINY:91.013
;MINZ:0.2
;MAXX:128.99
;MAXY:128.986
;MAXZ:5
;Generated with Cura_SteamEngine 4.12.1
M140 S50
M105
M190 S50
M104 S200
M105
M109 S200
M82 ;absolute extrusion mode
; Ender 3 Custom Start G-code
G92 E0 ; Reset Extruder
G28 ; Home all axes
G1 Z2.0 F3000 ; Move Z Axis up little to prevent scratching of Heat Bed
G1 X0.1 Y20 Z0.3 F5000.0 ; Move to start position
G1 X0.1 Y200.0 Z0.3 F1500.0 E15 ; Draw the first line
G1 X0.4 Y200.0 Z0.3 F5000.0 ; Move to side a little
G1 X0.4 Y20 Z0.3 F1500.0 E30 ; Draw the second line
G92 E0 ; Reset Extruder
G1 Z2.0 F3000 ; Move Z Axis up little to prevent scratching of Heat Bed
G1 X5 Y20 Z0.3 F5000.0 ; Move over to prevent blob squish
G92 E0
G92 E0
G1 F2700 E-5
;LAYER_COUNT:26
;LAYER:0
M107
G0 F6000 X96.693 Y96.461 Z0.2
;TYPE:SKIRT
G1 F2700 E0
G1 F1200 X96.956 Y96.21 E0.01209
G1 X97.22 Y95.967 E0.02403
G1 X97.597 Y95.63 E0.04084
G1 X98.28 Y95.067 E0.07028
G1 X98.599 Y94.825 E0.0836
G1 X98.855 Y94.636 E0.09419
G1 X99.257 Y94.349 E0.11061
G1 X100.03 Y93.845 E0.14131
G1 X100.375 Y93.64 E0.15465
G1 X100.595 Y93.513 E0.1631
G1 X100.966 Y93.304 E0.17727
G1 X101.402 Y93.071 E0.19371
G1 X101.491 Y93.026 E0.19702
G1 X101.927 Y92.818 E0.21309
G1 X102.206 Y92.692 E0.22327
G1 X102.456 Y92.583 E0.23234
G1 X102.937 Y92.38 E0.24971
G1 X103.727 Y92.081 E0.2778
G1 X104.089 Y91.96 E0.2905
G1 X104.477 Y91.839 E0.30402
G1 X104.964 Y91.696 E0.3209
G1 X105.795 Y91.486 E0.34941
G1 X106.151 Y91.411 E0.36151
G1 X106.497 Y91.344 E0.37323
G1 X107.038 Y91.248 E0.3915
G1 X107.914 Y91.129 E0.42091
G1 X108.27 Y91.095 E0.4328
G1 X108.589 Y91.069 E0.44345
G1 X109.087 Y91.036 E0.46005
G1 X109.935 Y91.013 E0.48826
G1 X110.3 Y91.017 E0.5004
G1 X110.637 Y91.026 E0.51161
G1 X111.117 Y91.046 E0.52759
G1 X111.769 Y91.092 E0.54933
G1 X112.117 Y91.131 E0.56098
G1 X112.439 Y91.172 E0.57178
G1 X112.726 Y91.212 E0.58141
G1 X113.219 Y91.288 E0.598
G1 X114.041 Y91.447 E0.62585
G1 X114.427 Y91.537 E0.63903
G1 X114.798 Y91.631 E0.65176
G1 X115.257 Y91.755 E0.66758
G1 X115.809 Y91.92 E0.68674
G1 X116.219 Y92.059 E0.70114
G1 X116.461 Y92.146 E0.70969
G1 X116.757 Y92.257 E0.72021
G1 X117.226 Y92.441 E0.73696
G1 X117.691 Y92.635 E0.75372
G1 X118.119 Y92.834 E0.76942
G1 X118.437 Y92.99 E0.7812
G1 X118.684 Y93.116 E0.79042
G1 X119.088 Y93.327 E0.80558
G1 X119.655 Y93.645 E0.8272
G1 X119.981 Y93.845 E0.83992
G1 X120.24 Y94.01 E0.85014
G1 X120.468 Y94.159 E0.8592
G1 X120.874 Y94.432 E0.87547
G1 X121.555 Y94.928 E0.90349
G1 X121.855 Y95.165 E0.91621
G1 X122.184 Y95.436 E0.93038
G1 X122.563 Y95.76 E0.94697
G1 X122.917 Y96.076 E0.96275
G1 X122.991 Y96.145 E0.96612
G1 X123.306 Y96.451 E0.98072
G1 X123.674 Y96.826 E0.9982
G1 X124.017 Y97.188 E1.01478
G1 X124.354 Y97.56 E1.03148
G1 X124.649 Y97.913 E1.04678
G1 X124.885 Y98.208 E1.05935
G1 X125.081 Y98.461 E1.06999
G1 X125.359 Y98.83 E1.08536
G1 X125.69 Y99.295 E1.10434
G1 X125.929 Y99.658 E1.1188
G1 X126.083 Y99.902 E1.12839
G1 X126.221 Y100.127 E1.13717
G1 X126.471 Y100.545 E1.15337
G1 X126.921 Y101.375 E1.18477
G1 X127.107 Y101.757 E1.1989
G1 X127.232 Y102.023 E1.20868
G1 X127.421 Y102.439 E1.22388
G1 X127.668 Y103.028 E1.24512
G1 X127.792 Y103.355 E1.25675
G1 X127.875 Y103.584 E1.26485
G1 X127.995 Y103.933 E1.27713
G1 X128.161 Y104.444 E1.295
G1 X128.393 Y105.267 E1.32344
G1 X128.485 Y105.649 E1.33651
G1 X128.558 Y105.973 E1.34755
G1 X128.649 Y106.408 E1.36233
G1 X128.726 Y106.812 E1.37601
G1 X128.741 Y106.9 E1.37898
G1 X128.814 Y107.403 E1.39589
G1 X128.857 Y107.752 E1.40758
G1 X128.888 Y108.031 E1.41692
G1 X128.932 Y108.483 E1.43202
G1 X128.982 Y109.336 E1.46044
G1 X128.989 Y109.698 E1.47249
G1 X128.99 Y110.059 E1.48449
G1 X128.983 Y110.579 E1.50179
G1 X128.958 Y111.192 E1.5222
G1 X128.927 Y111.582 E1.53521
G1 X128.899 Y111.874 E1.54496
G1 X128.863 Y112.199 E1.55584
G1 X128.801 Y112.691 E1.57233
G1 X128.712 Y113.271 E1.59185
G1 X128.642 Y113.637 E1.60424
G1 X128.581 Y113.929 E1.61417
G1 X128.505 Y114.265 E1.62562
G1 X128.387 Y114.753 E1.64232
G1 X128.245 Y115.283 E1.66057
G1 X128.112 Y115.713 E1.67554
G1 X128.032 Y115.956 E1.68405
G1 X127.937 Y116.233 E1.69379
G1 X127.76 Y116.726 E1.71121
G1 X127.55 Y117.266 E1.73048
G1 X127.38 Y117.657 E1.74466
G1 X127.265 Y117.909 E1.75388
G1 X127.155 Y118.142 E1.76245
G1 X126.929 Y118.608 E1.77967
G1 X126.458 Y119.479 E1.81261
G1 X126.233 Y119.853 E1.82712
G1 X126.098 Y120.071 E1.83565
G1 X125.866 Y120.437 E1.85007
G1 X125.5 Y120.978 E1.87179
G1 X125.266 Y121.297 E1.88495
G1 X125.114 Y121.497 E1.8933
G1 X124.941 Y121.718 E1.90264
G1 X124.623 Y122.115 E1.91956
G1 X124.274 Y122.53 E1.93759
G1 X123.999 Y122.833 E1.9512
G1 X123.751 Y123.096 E1.96322
G1 X123.526 Y123.327 E1.97395
G1 X123.203 Y123.65 E1.98914
G1 X122.566 Y124.239 E2.018
G1 X122.252 Y124.507 E2.03173
G1 X121.966 Y124.743 E2.04406
G1 X121.582 Y125.049 E2.06039
G1 X120.882 Y125.563 E2.08928
G1 X120.568 Y125.775 E2.10188
G1 X120.308 Y125.945 E2.11221
G1 X119.9 Y126.204 E2.12828
G1 X119.435 Y126.484 E2.14634
G1 X119.017 Y126.713 E2.16219
G1 X118.76 Y126.847 E2.17183
G1 X118.509 Y126.973 E2.18117
G1 X118.084 Y127.181 E2.19691
G1 X117.635 Y127.389 E2.21337
G1 X117.52 Y127.439 E2.21754
G1 X117.123 Y127.602 E2.23181
G1 X116.866 Y127.702 E2.24098
G1 X116.579 Y127.809 E2.25117
G1 X116.081 Y127.987 E2.26876
G1 X115.569 Y128.156 E2.28669
G1 X115.138 Y128.28 E2.30161
G1 X114.852 Y128.356 E2.31145
G1 X114.57 Y128.427 E2.32113
G1 X114.065 Y128.547 E2.33839
G1 X113.188 Y128.718 E2.36811
G1 X112.803 Y128.777 E2.38106
G1 X112.516 Y128.817 E2.3907
G1 X112.057 Y128.875 E2.40609
G1 X111.473 Y128.933 E2.42561
G1 X111.051 Y128.958 E2.43967
G1 X110.703 Y128.972 E2.45125
G1 X110.401 Y128.98 E2.4613
G1 X109.929 Y128.986 E2.477
G1 X109.055 Y128.963 E2.50608
G1 X108.666 Y128.937 E2.51905
G1 X108.341 Y128.91 E2.52989
G1 X107.824 Y128.86 E2.54717
G1 X106.93 Y128.736 E2.57719
G1 X106.553 Y128.668 E2.58993
G1 X106.226 Y128.604 E2.60101
G1 X105.754 Y128.504 E2.61706
G1 X104.93 Y128.296 E2.64533
G1 X104.556 Y128.186 E2.65829
G1 X104.217 Y128.08 E2.6701
G1 X103.771 Y127.933 E2.68572
G1 X103.246 Y127.745 E2.70427
G1 X103.14 Y127.704 E2.70805
G1 X102.78 Y127.558 E2.72097
G1 X102.308 Y127.353 E2.73809
G1 X101.84 Y127.14 E2.75519
G1 X101.313 Y126.883 E2.77469
G1 X100.939 Y126.681 E2.78883
G1 X100.453 Y126.405 E2.80742
G1 X100.009 Y126.141 E2.8246
G1 X99.248 Y125.645 E2.85481
G1 X98.942 Y125.427 E2.86731
G1 X98.7 Y125.249 E2.8773
G1 X98.309 Y124.954 E2.89359
G1 X97.829 Y124.57 E2.91404
G1 X97.498 Y124.283 E2.92861
G1 X97.251 Y124.06 E2.93967
G1 X97.039 Y123.863 E2.9493
G1 X96.687 Y123.528 E2.96546
G1 X96.323 Y123.166 E2.98254
G1 X96.256 Y123.096 E2.98576
G1 X95.977 Y122.793 E2.99946
G1 X95.795 Y122.588 E3.00858
G1 X95.625 Y122.392 E3.01721
G1 X95.294 Y122.001 E3.03424
G1 X94.726 Y121.27 E3.06503
G1 X94.487 Y120.934 E3.07875
G1 X94.306 Y120.671 E3.08937
G1 X94.05 Y120.288 E3.10469
G1 X93.763 Y119.834 E3.12255
G1 X93.514 Y119.408 E3.13897
G1 X93.398 Y119.199 E3.14692
G1 X93.261 Y118.944 E3.15654
G1 X93.013 Y118.468 E3.1744
G1 X92.629 Y117.652 E3.20439
G1 X92.488 Y117.317 E3.21648
G1 X92.378 Y117.044 E3.22627
G1 X92.196 Y116.577 E3.24294
G1 X91.968 Y115.936 E3.26557
G1 X91.87 Y115.618 E3.27664
G1 X91.781 Y115.316 E3.28711
G1 X91.704 Y115.043 E3.29654
G1 X91.582 Y114.586 E3.31227
G1 X91.388 Y113.722 E3.34173
G1 X91.316 Y113.327 E3.35508
G1 X91.262 Y112.999 E3.36614
G1 X91.19 Y112.523 E3.38215
G1 X91.115 Y111.916 E3.40249
G1 X91.082 Y111.531 E3.41534
G1 X91.064 Y111.274 E3.42391
G1 X91.045 Y110.937 E3.43514
G1 X91.024 Y110.403 E3.45291
G1 X91.027 Y109.484 E3.48348
G1 X91.044 Y109.1 E3.49626
G1 X91.059 Y108.833 E3.50516
G1 X91.091 Y108.367 E3.52069
G1 X91.182 Y107.521 E3.54899
G1 X91.237 Y107.147 E3.56157
G1 X91.296 Y106.787 E3.5737
G1 X91.386 Y106.29 E3.5905
G1 X91.576 Y105.437 E3.61957
G1 X91.676 Y105.059 E3.63257
G1 X91.771 Y104.72 E3.64428
G1 X91.908 Y104.262 E3.66018
G1 X92.101 Y103.678 E3.68064
G1 X92.252 Y103.273 E3.69501
G1 X92.358 Y103.004 E3.70463
G1 X92.462 Y102.75 E3.71376
G1 X92.655 Y102.294 E3.73023
G1 X93.041 Y101.476 E3.76031
G1 X93.249 Y101.079 E3.77522
G1 X93.406 Y100.791 E3.78613
G1 X93.604 Y100.439 E3.79956
G1 X93.873 Y99.987 E3.81706
G1 X94.121 Y99.6 E3.83234
G1 X94.259 Y99.394 E3.84059
G1 X94.451 Y99.117 E3.8518
G1 X94.76 Y98.685 E3.86947
G1 X95.321 Y97.965 E3.89982
G1 X95.585 Y97.654 E3.91339
G1 X95.776 Y97.435 E3.92306
G1 X96.093 Y97.081 E3.93886
G1 X96.693 Y96.461 E3.96756
G0 F6000 X96.97 Y96.751
G1 F1200 X97.233 Y96.5 E3.97965
G1 X97.487 Y96.265 E3.99116
G1 X97.864 Y95.928 E4.00798
G1 X98.522 Y95.386 E4.03633
G1 X98.841 Y95.144 E4.04965
G1 X99.088 Y94.962 E4.05985
G1 X99.49 Y94.675 E4.07628
G1 X100.234 Y94.189 E4.10584
G1 X100.579 Y93.984 E4.11919
G1 X100.791 Y93.862 E4.12732
G1 X101.162 Y93.653 E4.14149
G1 X101.582 Y93.428 E4.15733
G1 X101.671 Y93.383 E4.16065
G1 X102.091 Y93.182 E4.17614
G1 X102.37 Y93.056 E4.18632
G1 X102.611 Y92.951 E4.19506
G1 X103.092 Y92.748 E4.21243
G1 X103.854 Y92.461 E4.23951
G1 X104.216 Y92.34 E4.2522
G1 X104.59 Y92.222 E4.26525
G1 X105.077 Y92.079 E4.28213
G1 X105.878 Y91.878 E4.3096
G1 X106.234 Y91.803 E4.3217
G1 X106.567 Y91.738 E4.33298
G1 X107.108 Y91.642 E4.35126
G1 X107.952 Y91.527 E4.37959
G1 X108.308 Y91.493 E4.39148
G1 X108.615 Y91.468 E4.40173
G1 X109.113 Y91.435 E4.41833
G1 X109.93 Y91.413 E4.44551
G1 X110.295 Y91.417 E4.45765
G1 X110.62 Y91.425 E4.46846
G1 X111.1 Y91.445 E4.48444
G1 X111.729 Y91.49 E4.50542
G1 X112.067 Y91.528 E4.51673
G1 X112.389 Y91.569 E4.52752
G1 X112.665 Y91.608 E4.5368
G1 X113.158 Y91.684 E4.55339
G1 X113.95 Y91.837 E4.58022
G1 X114.336 Y91.927 E4.5934
G1 X114.694 Y92.017 E4.60568
G1 X115.153 Y92.141 E4.62149
G1 X115.685 Y92.3 E4.63996
G1 X116.084 Y92.435 E4.65397
G1 X116.326 Y92.522 E4.66252
G1 X116.611 Y92.629 E4.67265
G1 X117.08 Y92.813 E4.6894
G1 X117.593 Y93.03 E4.70793
G1 X117.943 Y93.193 E4.72077
G1 X118.261 Y93.349 E4.73255
G1 X118.499 Y93.47 E4.74143
G1 X118.903 Y93.681 E4.75659
G1 X119.45 Y93.988 E4.77745
G1 X119.766 Y94.182 E4.78979
G1 X120.025 Y94.347 E4.8
G1 X120.245 Y94.491 E4.80875
G1 X120.651 Y94.764 E4.82502
G1 X121.307 Y95.242 E4.85201
G1 X121.607 Y95.479 E4.86473
G1 X121.924 Y95.74 E4.87839
G1 X122.303 Y96.064 E4.89497
G1 X122.644 Y96.368 E4.91017
G1 X122.718 Y96.437 E4.91353
G1 X123.022 Y96.732 E4.92762
G1 X123.384 Y97.101 E4.94481
G1 X123.727 Y97.463 E4.9614
G1 X124.052 Y97.823 E4.97753
G1 X124.336 Y98.163 E4.99227
G1 X124.572 Y98.458 E5.00483
G1 X124.761 Y98.702 E5.0151
G1 X125.039 Y99.071 E5.03046
G1 X125.359 Y99.519 E5.04877
G1 X125.591 Y99.871 E5.0628
G1 X125.745 Y100.115 E5.07239
G1 X125.878 Y100.332 E5.08086
G1 X126.128 Y100.75 E5.09706
G1 X126.561 Y101.551 E5.12734
G1 X126.747 Y101.933 E5.14147
G1 X126.868 Y102.188 E5.15086
G1 X127.057 Y102.604 E5.16606
G1 X127.295 Y103.172 E5.18654
G1 X127.416 Y103.491 E5.19789
G1 X127.499 Y103.72 E5.20599
G1 X127.614 Y104.057 E5.21783
G1 X127.78 Y104.568 E5.2357
G1 X128.004 Y105.361 E5.26311
G1 X128.096 Y105.743 E5.27618
G1 X128.166 Y106.055 E5.28682
G1 X128.257 Y106.49 E5.3016
G1 X128.346 Y106.967 E5.31774
G1 X128.417 Y107.452 E5.33404
G1 X128.46 Y107.801 E5.34573
G1 X128.49 Y108.07 E5.35474
G1 X128.534 Y108.522 E5.36984
G1 X128.582 Y109.344 E5.39723
G1 X128.589 Y109.706 E5.40927
G1 X128.59 Y110.054 E5.42084
G1 X128.583 Y110.574 E5.43814
G1 X128.559 Y111.164 E5.45778
G1 X128.529 Y111.544 E5.47046
G1 X128.501 Y111.836 E5.48022
G1 X128.466 Y112.149 E5.49069
G1 X128.404 Y112.641 E5.50718
G1 X128.318 Y113.199 E5.52596
G1 X128.25 Y113.556 E5.53805
G1 X128.189 Y113.848 E5.54797
G1 X128.116 Y114.171 E5.55899
G1 X127.998 Y114.659 E5.57568
G1 X127.861 Y115.169 E5.59325
G1 X127.732 Y115.588 E5.60783
G1 X127.652 Y115.831 E5.61634
G1 X127.56 Y116.098 E5.62573
G1 X127.383 Y116.591 E5.64315
G1 X127.181 Y117.112 E5.66174
G1 X127.016 Y117.491 E5.67549
G1 X126.796 Y117.968 E5.69296
G1 X126.57 Y118.434 E5.71018
G1 X126.115 Y119.272 E5.7419
G1 X125.89 Y119.646 E5.75642
G1 X125.76 Y119.857 E5.76466
G1 X125.528 Y120.223 E5.77907
G1 X125.176 Y120.744 E5.79999
G1 X124.947 Y121.055 E5.81283
G1 X124.795 Y121.255 E5.82119
G1 X124.629 Y121.468 E5.83017
G1 X124.311 Y121.865 E5.84709
G1 X123.973 Y122.266 E5.86453
G1 X123.708 Y122.558 E5.87764
G1 X123.46 Y122.821 E5.88967
G1 X123.243 Y123.044 E5.90002
G1 X122.92 Y123.367 E5.91521
G1 X122.306 Y123.935 E5.94303
G1 X121.992 Y124.203 E5.95676
G1 X121.717 Y124.43 E5.96862
G1 X121.333 Y124.736 E5.98495
G1 X120.658 Y125.231 E6.01279
G1 X120.344 Y125.443 E6.02539
G1 X120.094 Y125.607 E6.03534
G1 X119.686 Y125.866 E6.05141
G1 X119.237 Y126.136 E6.06884
G1 X118.832 Y126.358 E6.0842
G1 X118.575 Y126.492 E6.09384
G1 X118.334 Y126.614 E6.10282
G1 X117.909 Y126.822 E6.11856
G1 X117.475 Y127.022 E6.13445
G1 X117.36 Y127.072 E6.13862
G1 X116.978 Y127.23 E6.15237
G1 X116.721 Y127.33 E6.16155
G1 X116.445 Y127.433 E6.17134
G1 X115.947 Y127.611 E6.18893
G1 X115.387 Y127.793 E6.20852
G1 X115.035 Y127.893 E6.22069
G1 X114.749 Y127.969 E6.23053
G1 X114.478 Y128.038 E6.23983
G1 X113.973 Y128.158 E6.2571
G1 X113.128 Y128.323 E6.28573
G1 X112.743 Y128.382 E6.29869
G1 X112.466 Y128.42 E6.30799
G1 X112.007 Y128.478 E6.32337
G1 X111.444 Y128.534 E6.34219
G1 X111.035 Y128.558 E6.35582
G1 X110.687 Y128.572 E6.3674
G1 X110.396 Y128.58 E6.37708
G1 X109.924 Y128.586 E6.39278
G1 X109.082 Y128.563 E6.4208
G1 X108.693 Y128.537 E6.43377
G1 X108.38 Y128.512 E6.44421
G1 X107.863 Y128.462 E6.46149
G1 X107.001 Y128.343 E6.49043
G1 X106.624 Y128.275 E6.50317
G1 X106.309 Y128.213 E6.51385
G1 X105.837 Y128.113 E6.5299
G1 X105.043 Y127.912 E6.55714
G1 X104.669 Y127.802 E6.5701
G1 X104.342 Y127.7 E6.5815
G1 X103.896 Y127.553 E6.59712
G1 X103.39 Y127.372 E6.61499
G1 X103.284 Y127.331 E6.61877
G1 X102.937 Y127.19 E6.63123
G1 X102.474 Y126.989 E6.64801
G1 X102.006 Y126.776 E6.66512
G1 X101.498 Y126.528 E6.68392
G1 X101.134 Y126.333 E6.69765
G1 X100.883 Y126.192 E6.70723
G1 X100.658 Y126.061 E6.71589
G1 X100.214 Y125.797 E6.73307
G1 X99.481 Y125.319 E6.76217
G1 X99.175 Y125.101 E6.77467
G1 X98.941 Y124.93 E6.78431
G1 X98.55 Y124.635 E6.8006
G1 X98.087 Y124.265 E6.82031
G1 X97.766 Y123.986 E6.83446
G1 X97.519 Y123.763 E6.84553
G1 X97.314 Y123.573 E6.85482
G1 X96.962 Y123.238 E6.87099
G1 X96.612 Y122.889 E6.88743
G1 X96.545 Y122.819 E6.89065
G1 X96.276 Y122.527 E6.90385
G1 X96.094 Y122.322 E6.91297
G1 X95.931 Y122.134 E6.92125
G1 X95.6 Y121.743 E6.93829
G1 X95.052 Y121.038 E6.96798
G1 X94.813 Y120.702 E6.9817
G1 X94.638 Y120.448 E6.99196
G1 X94.382 Y120.065 E7.00728
G1 X94.106 Y119.629 E7.02444
G1 X94.043 Y119.524 E7.02852
G1 X93.864 Y119.214 E7.04042
G1 X93.748 Y119.005 E7.04837
G1 X93.615 Y118.759 E7.05767
G1 X93.367 Y118.283 E7.07553
G1 X92.998 Y117.497 E7.10441
G1 X92.857 Y117.162 E7.11649
G1 X92.751 Y116.899 E7.12593
G1 X92.569 Y116.432 E7.1426
G1 X92.349 Y115.814 E7.16441
G1 X92.253 Y115.504 E7.17521
G1 X92.164 Y115.202 E7.18568
G1 X92.091 Y114.94 E7.19473
G1 X91.969 Y114.483 E7.21046
G1 X91.782 Y113.65 E7.23885
G1 X91.71 Y113.255 E7.25221
G1 X91.657 Y112.939 E7.26286
G1 X91.585 Y112.463 E7.27888
G1 X91.513 Y111.879 E7.29845
G1 X91.481 Y111.503 E7.311
G1 X91.463 Y111.246 E7.31957
G1 X91.445 Y110.922 E7.33036
G1 X91.424 Y110.388 E7.34813
G1 X91.426 Y109.502 E7.3776
G1 X91.443 Y109.118 E7.39039
G1 X91.458 Y108.861 E7.39895
G1 X91.49 Y108.395 E7.41449
G1 X91.578 Y107.579 E7.44178
G1 X91.633 Y107.205 E7.45436
G1 X91.69 Y106.858 E7.46605
G1 X91.78 Y106.361 E7.48285
G1 X91.963 Y105.539 E7.51086
G1 X92.063 Y105.161 E7.52387
G1 X92.155 Y104.834 E7.53516
G1 X92.292 Y104.376 E7.55106
G1 X92.477 Y103.814 E7.57074
G1 X92.624 Y103.42 E7.58473
G1 X92.73 Y103.151 E7.59435
G1 X92.83 Y102.905 E7.60318
G1 X93.023 Y102.449 E7.61965
G1 X93.396 Y101.662 E7.64861
G1 X93.604 Y101.265 E7.66352
G1 X93.754 Y100.987 E7.67403
G1 X93.952 Y100.635 E7.68746
G1 X94.211 Y100.199 E7.70433
G1 X94.453 Y99.822 E7.71923
G1 X94.591 Y99.616 E7.72747
G1 X94.776 Y99.349 E7.73828
G1 X95.085 Y98.917 E7.75594
G1 X95.626 Y98.224 E7.78518
G1 X95.89 Y97.913 E7.79875
G1 X96.074 Y97.702 E7.80806
G1 X96.391 Y97.348 E7.82387
